X: 32631
T: Pleasure Palace, The
R: jig
M: 6/8
K: Amajor
|:Ace abf-|fga ecA|def ega|ecA BcB|
Ace abf-|fga ecA|def ecA|1 BGB AcB:|2 BGB ABc||
|:d2B c2A|~B3 AGF|~E3 ecA|B2A Bcd|Bce fec|
BAG ABc|1 def edc|~B3 B2c:|2 def ega|ecA BcB||

